; generated by PrusaSlicer 2.3.0+win64 on 2021-04-30 at 07:51:25 UTC


;
;

;
;
; 

; external perimeters extrusion width = 0.45mm
; perimeters extrusion width = 0.45mm
; infill extrusion width = 0.45mm
; solid infill extrusion width = 0.45mm
; top infill extrusion width = 0.40mm
; first layer extrusion width = 0.42mm

M73 P0 R69
M201 X1250 Y1250 Z400 E5000 ; sets maximum accelerations, mm/sec^2
M203 X180 Y180 Z12 E80 ; sets maximum feedrates, mm/sec
M204 P1250 R1250 T1250 ; sets acceleration (P, T) and retract acceleration (R), mm/sec^2
M205 X8.00 Y8.00 Z2.00 E10.00 ; sets the jerk limits, mm/sec
M205 S0 T0 ; sets the minimum extruding and travel feed rate, mm/sec
M107
;TYPE:Custom
G90 ; use absolute coordinates
M83 ; extruder relative mode
M104 S170 ; set extruder temp for bed leveling
M140 S60 ; set bed temp
M109 R170 ; wait for bed leveling temp
M190 S60 ; wait for bed temp
G28 ; home all without mesh bed level
G29 ; mesh bed leveling 
M104 S215 ; set extruder temp
G92 E0.0
G1 Y-2.0 X179 F2400
M73 P0 R68
G1 Z3 F720
M109 S215 ; wait for extruder temp

; intro line
G1 X170 F1000
G1 Z0.2 F720
G1 X110.0 E8.0 F900
G1 X40.0 E10.0 F700
G92 E0.0

M221 S95 ; set flow
G21 ; set units to millimeters
G90 ; use absolute coordinates
M83 ; use relative distances for extrusion
M900 K0.2 ; Filament gcode LA 1.5
; ; Filament gcode LA 1.0
;LAYER_CHANGE
;Z:0.2
;HEIGHT:0.2
;BEFORE_LAYER_CHANGE
G92 E0.0
;0.2


G1 E-3.20000 F4200.000
G1 Z0.200 F9000.000
;AFTER_LAYER_CHANGE
;0.2
G1 Z0.400
G1 X30.241 Y26.925
G1 Z0.200
G1 E3.20000 F2400.000
M204 S800
;TYPE:Skirt
;WIDTH:0.42
G1 F1200.000
G1 X30.743 Y26.496 E0.02071
G1 X31.344 Y26.221 E0.02071
G1 X31.993 Y26.123 E0.02060
G1 X151.997 Y26.123 E3.76263
G1 X152.919 Y26.226 E0.02909
G1 X153.415 Y26.370 E0.01621
G1 X154.238 Y26.743 E0.02832
G1 X155.075 Y27.392 E0.03322
G1 X155.661 Y28.120 E0.02929
G1 X155.912 Y28.568 E0.01609
G1 X156.233 Y29.413 E0.02833
G1 X156.369 Y30.425 E0.03203
G1 X156.370 Y149.511 E3.73387
G1 X156.232 Y150.590 E0.03409
G1 X155.870 Y151.524 E0.03143
G1 X155.140 Y152.541 E0.03924
G1 X154.246 Y153.252 E0.03582
G1 X153.165 Y153.717 E0.03689
G1 X152.072 Y153.876 E0.03464
G1 X92.013 Y153.877 E1.88309
G1 X91.492 Y153.818 E0.01645
G1 X90.997 Y153.645 E0.01645
G1 X90.327 Y153.167 E0.02580
G1 X30.324 Y92.193 E2.68226
G1 X29.881 Y91.563 E0.02414
G1 X29.704 Y91.057 E0.01680
G1 X29.644 Y90.528 E0.01670
G1 X29.644 Y28.492 E1.94508
G1 X29.703 Y27.971 E0.01645
G1 X29.876 Y27.476 E0.01645
G1 X30.207 Y26.975 E0.01883
M204 S1250
; printing object ButtonShelf.stl id:0 copy 0
G1 E-2.24000 F4200.000
;WIPE_START
G1 F7200.000
G1 X30.743 Y26.496 E-0.39817
G1 X31.344 Y26.221 E-0.36610
G1 X31.607 Y26.182 E-0.14774
;WIPE_END
G1 E-0.04800 F4200.000
G1 Z0.400 F9000.000
G1 X36.234 Y32.713
G1 Z0.200
G1 E3.20000 F2400.000
M204 S800
;TYPE:Perimeter
G1 F1200.000
G1 X149.780 Y32.713 E3.56016
M73 P1 R68
G1 X149.780 Y147.287 E3.59239
G1 X96.234 Y147.287 E1.67890
G1 X96.234 Y86.315 E1.91173
G1 X36.234 Y86.315 E1.88126
G1 X36.234 Y32.773 E1.67878
M204 S1250
M73 P1 R67
G1 X36.611 Y33.090 F9000.000
M204 S800
;TYPE:External perimeter
G1 F1200.000
G1 X149.403 Y33.090 E3.53651
G1 X149.403 Y146.910 E3.56875
G1 X96.611 Y146.910 E1.65526
G1 X96.611 Y85.938 E1.91173
G1 X36.611 Y85.938 E1.88126
M73 P2 R67
G1 X36.611 Y33.150 E1.65513
M204 S1250
G1 X36.499 Y32.706 F9000.000
G1 E-2.24000 F4200.000
;WIPE_START
G1 F7200.000
G1 X38.257 Y33.149 E-0.91200
;WIPE_END
G1 E-0.04800 F4200.000
G1 Z0.400 F9000.000
G1 X92.808 Y89.741
G1 Z0.200
G1 E3.20000 F2400.000
M204 S800
;TYPE:Perimeter
G1 F1200.000
G1 X32.808 Y89.741 E1.88126
G1 X32.808 Y29.287 E1.89549
G1 X151.941 Y29.287 E3.73534
G1 X152.305 Y29.335 E0.01150
G1 X152.596 Y29.455 E0.00987
G1 X152.846 Y29.647 E0.00987
G1 X153.038 Y29.897 E0.00987
G1 X153.158 Y30.188 E0.00987
G1 X153.206 Y30.552 E0.01150
G1 X153.206 Y149.448 E3.72793
G1 X153.158 Y149.812 E0.01150
G1 X153.038 Y150.103 E0.00987
G1 X152.846 Y150.353 E0.00987
G1 X152.596 Y150.545 E0.00987
G1 X152.305 Y150.665 E0.00987
G1 X151.941 Y150.713 E0.01150
G1 X92.808 Y150.713 E1.85408
G1 X92.808 Y89.801 E1.90985
M204 S1250
G1 X92.431 Y90.118 F9000.000
M204 S800
;TYPE:External perimeter
G1 F1200.000
G1 X32.431 Y90.118 E1.88126
G1 X32.431 Y28.910 E1.91913
G1 X151.966 Y28.910 E3.74794
M73 P2 R66
G1 X152.404 Y28.968 E0.01384
G1 X152.786 Y29.126 E0.01299
G1 X153.115 Y29.378 E0.01299
G1 X153.367 Y29.707 E0.01299
G1 X153.525 Y30.089 E0.01299
G1 X153.583 Y30.527 E0.01384
G1 X153.583 Y149.473 E3.72948
M73 P3 R66
G1 X153.525 Y149.911 E0.01384
G1 X153.367 Y150.293 E0.01299
G1 X153.115 Y150.622 E0.01299
G1 X152.786 Y150.874 E0.01299
G1 X152.404 Y151.032 E0.01299
G1 X151.966 Y151.090 E0.01384
G1 X92.431 Y151.090 E1.86668
G1 X92.431 Y90.178 E1.90985
M204 S1250
G1 X92.329 Y89.731 F9000.000
G1 E-2.24000 F4200.000
;WIPE_START
G1 F7200.000
G1 X90.785 Y90.176 E-0.91200
;WIPE_END
G1 E-0.04800 F4200.000
G1 Z0.400 F9000.000
G1 X151.664 Y29.400
G1 Z0.200
G1 E3.20000 F2400.000
M204 S800
;TYPE:Solid infill
;WIDTH:0.420003
G1 F1200.000
G1 X152.923 Y30.659 E0.05581
G1 X152.923 Y31.192 E0.01672
G1 X151.301 Y29.570 E0.07193
G1 X150.768 Y29.570 E0.01672
G1 X152.923 Y31.725 E0.09558
G1 X152.923 Y32.259 E0.01672
G1 X150.234 Y29.570 E0.11923
G1 X149.701 Y29.570 E0.01672
G1 X152.923 Y32.792 E0.14287
G1 X152.923 Y33.325 E0.01672
G1 X149.168 Y29.570 E0.16652
G1 X148.635 Y29.570 E0.01672
G1 X152.923 Y33.858 E0.19017
G1 X152.923 Y34.392 E0.01672
G1 X148.101 Y29.570 E0.21381
G1 X147.568 Y29.570 E0.01672
G1 X152.923 Y34.925 E0.23746
G1 X152.923 Y35.458 E0.01672
G1 X147.035 Y29.570 E0.26111
G1 X146.501 Y29.570 E0.01672
G1 X149.362 Y32.430 E0.12683
G1 X148.828 Y32.430 E0.01672
G1 X145.968 Y29.570 E0.12683
G1 X145.435 Y29.570 E0.01672
G1 X148.295 Y32.430 E0.12683
G1 X147.762 Y32.430 E0.01672
G1 X144.902 Y29.570 E0.12683
G1 X144.368 Y29.570 E0.01672
G1 X147.229 Y32.430 E0.12683
G1 X146.695 Y32.430 E0.01672
G1 X143.835 Y29.570 E0.12683
G1 X143.302 Y29.570 E0.01672
G1 X146.162 Y32.430 E0.12683
G1 X145.629 Y32.430 E0.01672
G1 X142.768 Y29.570 E0.12683
G1 X142.235 Y29.570 E0.01672
G1 X145.095 Y32.430 E0.12683
G1 X144.562 Y32.430 E0.01672
G1 X141.702 Y29.570 E0.12683
G1 X141.169 Y29.570 E0.01672
G1 X144.029 Y32.430 E0.12683
G1 X143.496 Y32.430 E0.01672
G1 X140.635 Y29.570 E0.12683
G1 X140.102 Y29.570 E0.01672
G1 X142.962 Y32.430 E0.12683
G1 X142.429 Y32.430 E0.01672
G1 X139.569 Y29.570 E0.12683
G1 X139.036 Y29.570 E0.01672
G1 X141.896 Y32.430 E0.12683
G1 X141.363 Y32.430 E0.01672
G1 X138.502 Y29.570 E0.12683
G1 X137.969 Y29.570 E0.01672
G1 X140.829 Y32.430 E0.12683
G1 X140.296 Y32.430 E0.01672
G1 X137.436 Y29.570 E0.12683
G1 X136.902 Y29.570 E0.01672
G1 X139.763 Y32.430 E0.12683
G1 X139.229 Y32.430 E0.01672
G1 X136.369 Y29.570 E0.12683
G1 X135.836 Y29.570 E0.01672
G1 X138.696 Y32.430 E0.12683
G1 X138.163 Y32.430 E0.01672
G1 X135.303 Y29.570 E0.12683
G1 X134.769 Y29.570 E0.01672
G1 X137.630 Y32.430 E0.12683
G1 X137.096 Y32.430 E0.01672
G1 X134.236 Y29.570 E0.12683
G1 X133.703 Y29.570 E0.01672
G1 X136.563 Y32.430 E0.12683
G1 X136.030 Y32.430 E0.01672
G1 X133.170 Y29.570 E0.12683
G1 X132.636 Y29.570 E0.01672
G1 X135.496 Y32.430 E0.12683
G1 X134.963 Y32.430 E0.01672
G1 X132.103 Y29.570 E0.12683
G1 X131.570 Y29.570 E0.01672
G1 X134.430 Y32.430 E0.12683
G1 X133.897 Y32.430 E0.01672
G1 X131.036 Y29.570 E0.12683
G1 X130.503 Y29.570 E0.01672
G1 X133.363 Y32.430 E0.12683
G1 X132.830 Y32.430 E0.01672
G1 X129.970 Y29.570 E0.12683
G1 X129.437 Y29.570 E0.01672
G1 X132.297 Y32.430 E0.12683
G1 X131.764 Y32.430 E0.01672
G1 X128.903 Y29.570 E0.12683
G1 X128.370 Y29.570 E0.01672
G1 X131.230 Y32.430 E0.12683
G1 X130.697 Y32.430 E0.01672
G1 X127.837 Y29.570 E0.12683
G1 X127.303 Y29.570 E0.01672
G1 X130.164 Y32.430 E0.12683
G1 X129.630 Y32.430 E0.01672
G1 X126.770 Y29.570 E0.12683
G1 X126.237 Y29.570 E0.01672
G1 X129.097 Y32.430 E0.12683
G1 X128.564 Y32.430 E0.01672
G1 X125.704 Y29.570 E0.12683
G1 X125.170 Y29.570 E0.01672
G1 X128.031 Y32.430 E0.12683
G1 X127.497 Y32.430 E0.01672
G1 X124.637 Y29.570 E0.12683
G1 X124.104 Y29.570 E0.01672
G1 X126.964 Y32.430 E0.12683
G1 X126.431 Y32.430 E0.01672
G1 X123.571 Y29.570 E0.12683
G1 X123.037 Y29.570 E0.01672
G1 X125.898 Y32.430 E0.12683
G1 X125.364 Y32.430 E0.01672
G1 X122.504 Y29.570 E0.12683
G1 X121.971 Y29.570 E0.01672
G1 X124.831 Y32.430 E0.12683
G1 X124.298 Y32.430 E0.01672
G1 X121.437 Y29.570 E0.12683
G1 X120.904 Y29.570 E0.01672
G1 X123.764 Y32.430 E0.12683
G1 X123.231 Y32.430 E0.01672
G1 X120.371 Y29.570 E0.12683
G1 X119.838 Y29.570 E0.01672
G1 X122.698 Y32.430 E0.12683
G1 X122.165 Y32.430 E0.01672
G1 X119.304 Y29.570 E0.12683
G1 X118.771 Y29.570 E0.01672
G1 X121.631 Y32.430 E0.12683
G1 X121.098 Y32.430 E0.01672
G1 X118.238 Y29.570 E0.12683
G1 X117.705 Y29.570 E0.01672
G1 X120.565 Y32.430 E0.12683
G1 X120.031 Y32.430 E0.01672
G1 X117.171 Y29.570 E0.12683
G1 X116.638 Y29.570 E0.01672
G1 X119.498 Y32.430 E0.12683
G1 X118.965 Y32.430 E0.01672
G1 X116.105 Y29.570 E0.12683
G1 X115.571 Y29.570 E0.01672
G1 X118.432 Y32.430 E0.12683
G1 X117.898 Y32.430 E0.01672
G1 X115.038 Y29.570 E0.12683
G1 X114.505 Y29.570 E0.01672
G1 X117.365 Y32.430 E0.12683
G1 X116.832 Y32.430 E0.01672
G1 X113.972 Y29.570 E0.12683
G1 X113.438 Y29.570 E0.01672
G1 X116.299 Y32.430 E0.12683
G1 X115.765 Y32.430 E0.01672
G1 X112.905 Y29.570 E0.12683
G1 X112.372 Y29.570 E0.01672
G1 X115.232 Y32.430 E0.12683
G1 X114.699 Y32.430 E0.01672
G1 X111.838 Y29.570 E0.12683
G1 X111.305 Y29.570 E0.01672
G1 X114.165 Y32.430 E0.12683
G1 X113.632 Y32.430 E0.01672
G1 X110.772 Y29.570 E0.12683
G1 X110.239 Y29.570 E0.01672
G1 X113.099 Y32.430 E0.12683
G1 X112.566 Y32.430 E0.01672
G1 X109.705 Y29.570 E0.12683
G1 X109.172 Y29.570 E0.01672
G1 X112.032 Y32.430 E0.12683
G1 X111.499 Y32.430 E0.01672
G1 X108.639 Y29.570 E0.12683
G1 X108.106 Y29.570 E0.01672
G1 X110.966 Y32.430 E0.12683
G1 X110.433 Y32.430 E0.01672
G1 X107.572 Y29.570 E0.12683
G1 X107.039 Y29.570 E0.01672
G1 X109.899 Y32.430 E0.12683
G1 X109.366 Y32.430 E0.01672
G1 X106.506 Y29.570 E0.12683
G1 X105.972 Y29.570 E0.01672
G1 X108.833 Y32.430 E0.12683
G1 X108.299 Y32.430 E0.01672
G1 X105.439 Y29.570 E0.12683
G1 X104.906 Y29.570 E0.01672
G1 X107.766 Y32.430 E0.12683
G1 X107.233 Y32.430 E0.01672
G1 X104.373 Y29.570 E0.12683
G1 X103.839 Y29.570 E0.01672
G1 X106.700 Y32.430 E0.12683
G1 X106.166 Y32.430 E0.01672
G1 X103.306 Y29.570 E0.12683
G1 X102.773 Y29.570 E0.01672
G1 X105.633 Y32.430 E0.12683
G1 X105.100 Y32.430 E0.01672
G1 X102.240 Y29.570 E0.12683
G1 X101.706 Y29.570 E0.01672
G1 X104.566 Y32.430 E0.12683
G1 X104.033 Y32.430 E0.01672
G1 X101.173 Y29.570 E0.12683
G1 X100.640 Y29.570 E0.01672
G1 X103.500 Y32.430 E0.12683
G1 X102.967 Y32.430 E0.01672
G1 X100.106 Y29.570 E0.12683
G1 X99.573 Y29.570 E0.01672
G1 X102.433 Y32.430 E0.12683
G1 X101.900 Y32.430 E0.01672
G1 X99.040 Y29.570 E0.12683
G1 X98.507 Y29.570 E0.01672
G1 X101.367 Y32.430 E0.12683
G1 X100.834 Y32.430 E0.01672
G1 X97.973 Y29.570 E0.12683
G1 X97.440 Y29.570 E0.01672
G1 X100.300 Y32.430 E0.12683
G1 X99.767 Y32.430 E0.01672
G1 X96.907 Y29.570 E0.12683
G1 X96.373 Y29.570 E0.01672
G1 X99.234 Y32.430 E0.12683
G1 X98.700 Y32.430 E0.01672
G1 X95.840 Y29.570 E0.12683
G1 X95.307 Y29.570 E0.01672
G1 X98.167 Y32.430 E0.12683
G1 X97.634 Y32.430 E0.01672
G1 X94.774 Y29.570 E0.12683
G1 X94.240 Y29.570 E0.01672
G1 X97.101 Y32.430 E0.12683
G1 X96.567 Y32.430 E0.01672
G1 X93.707 Y29.570 E0.12683
G1 X93.174 Y29.570 E0.01672
G1 X96.034 Y32.430 E0.12683
G1 X95.501 Y32.430 E0.01672
G1 X92.641 Y29.570 E0.12683
G1 X92.107 Y29.570 E0.01672
G1 X94.968 Y32.430 E0.12683
G1 X94.434 Y32.430 E0.01672
G1 X91.574 Y29.570 E0.12683
G1 X91.041 Y29.570 E0.01672
G1 X93.901 Y32.430 E0.12683
G1 X93.368 Y32.430 E0.01672
G1 X90.507 Y29.570 E0.12683
M73 P4 R66
G1 X89.974 Y29.570 E0.01672
G1 X92.834 Y32.430 E0.12683
G1 X92.301 Y32.430 E0.01672
G1 X89.441 Y29.570 E0.12683
G1 X88.908 Y29.570 E0.01672
G1 X91.768 Y32.430 E0.12683
G1 X91.235 Y32.430 E0.01672
G1 X88.374 Y29.570 E0.12683
G1 X87.841 Y29.570 E0.01672
G1 X90.701 Y32.430 E0.12683
G1 X90.168 Y32.430 E0.01672
G1 X87.308 Y29.570 E0.12683
G1 X86.775 Y29.570 E0.01672
G1 X89.635 Y32.430 E0.12683
G1 X89.101 Y32.430 E0.01672
G1 X86.241 Y29.570 E0.12683
G1 X85.708 Y29.570 E0.01672
G1 X88.568 Y32.430 E0.12683
G1 X88.035 Y32.430 E0.01672
G1 X85.175 Y29.570 E0.12683
G1 X84.641 Y29.570 E0.01672
G1 X87.502 Y32.430 E0.12683
G1 X86.968 Y32.430 E0.01672
G1 X84.108 Y29.570 E0.12683
G1 X83.575 Y29.570 E0.01672
G1 X86.435 Y32.430 E0.12683
G1 X85.902 Y32.430 E0.01672
G1 X83.042 Y29.570 E0.12683
G1 X82.508 Y29.570 E0.01672
G1 X85.369 Y32.430 E0.12683
G1 X84.835 Y32.430 E0.01672
G1 X81.975 Y29.570 E0.12683
G1 X81.442 Y29.570 E0.01672
G1 X84.302 Y32.430 E0.12683
G1 X83.769 Y32.430 E0.01672
G1 X80.908 Y29.570 E0.12683
G1 X80.375 Y29.570 E0.01672
G1 X83.235 Y32.430 E0.12683
G1 X82.702 Y32.430 E0.01672
G1 X79.842 Y29.570 E0.12683
G1 X79.309 Y29.570 E0.01672
G1 X82.169 Y32.430 E0.12683
G1 X81.636 Y32.430 E0.01672
G1 X78.775 Y29.570 E0.12683
G1 X78.242 Y29.570 E0.01672
G1 X81.102 Y32.430 E0.12683
G1 X80.569 Y32.430 E0.01672
G1 X77.709 Y29.570 E0.12683
G1 X77.176 Y29.570 E0.01672
G1 X80.036 Y32.430 E0.12683
G1 X79.503 Y32.430 E0.01672
G1 X76.642 Y29.570 E0.12683
G1 X76.109 Y29.570 E0.01672
G1 X78.969 Y32.430 E0.12683
G1 X78.436 Y32.430 E0.01672
G1 X75.576 Y29.570 E0.12683
G1 X75.042 Y29.570 E0.01672
G1 X77.903 Y32.430 E0.12683
G1 X77.369 Y32.430 E0.01672
G1 X74.509 Y29.570 E0.12683
G1 X73.976 Y29.570 E0.01672
G1 X76.836 Y32.430 E0.12683
G1 X76.303 Y32.430 E0.01672
G1 X73.443 Y29.570 E0.12683
G1 X72.909 Y29.570 E0.01672
G1 X75.770 Y32.430 E0.12683
G1 X75.236 Y32.430 E0.01672
G1 X72.376 Y29.570 E0.12683
G1 X71.843 Y29.570 E0.01672
G1 X74.703 Y32.430 E0.12683
G1 X74.170 Y32.430 E0.01672
G1 X71.310 Y29.570 E0.12683
G1 X70.776 Y29.570 E0.01672
G1 X73.636 Y32.430 E0.12683
G1 X73.103 Y32.430 E0.01672
G1 X70.243 Y29.570 E0.12683
G1 X69.710 Y29.570 E0.01672
G1 X72.570 Y32.430 E0.12683
G1 X72.037 Y32.430 E0.01672
G1 X69.176 Y29.570 E0.12683
G1 X68.643 Y29.570 E0.01672
G1 X71.503 Y32.430 E0.12683
G1 X70.970 Y32.430 E0.01672
G1 X68.110 Y29.570 E0.12683
G1 X67.577 Y29.570 E0.01672
G1 X70.437 Y32.430 E0.12683
G1 X69.904 Y32.430 E0.01672
G1 X67.043 Y29.570 E0.12683
G1 X66.510 Y29.570 E0.01672
G1 X69.370 Y32.430 E0.12683
G1 X68.837 Y32.430 E0.01672
G1 X65.977 Y29.570 E0.12683
G1 X65.443 Y29.570 E0.01672
G1 X68.304 Y32.430 E0.12683
G1 X67.770 Y32.430 E0.01672
G1 X64.910 Y29.570 E0.12683
G1 X64.377 Y29.570 E0.01672
G1 X67.237 Y32.430 E0.12683
G1 X66.704 Y32.430 E0.01672
G1 X63.844 Y29.570 E0.12683
G1 X63.310 Y29.570 E0.01672
G1 X66.171 Y32.430 E0.12683
G1 X65.637 Y32.430 E0.01672
G1 X62.777 Y29.570 E0.12683
G1 X62.244 Y29.570 E0.01672
G1 X65.104 Y32.430 E0.12683
G1 X64.571 Y32.430 E0.01672
G1 X61.711 Y29.570 E0.12683
G1 X61.177 Y29.570 E0.01672
G1 X64.038 Y32.430 E0.12683
G1 X63.504 Y32.430 E0.01672
G1 X60.644 Y29.570 E0.12683
G1 X60.111 Y29.570 E0.01672
G1 X62.971 Y32.430 E0.12683
G1 X62.438 Y32.430 E0.01672
G1 X59.577 Y29.570 E0.12683
G1 X59.044 Y29.570 E0.01672
G1 X61.904 Y32.430 E0.12683
G1 X61.371 Y32.430 E0.01672
G1 X58.511 Y29.570 E0.12683
G1 X57.978 Y29.570 E0.01672
G1 X60.838 Y32.430 E0.12683
G1 X60.305 Y32.430 E0.01672
G1 X57.444 Y29.570 E0.12683
G1 X56.911 Y29.570 E0.01672
G1 X59.771 Y32.430 E0.12683
G1 X59.238 Y32.430 E0.01672
G1 X56.378 Y29.570 E0.12683
G1 X55.845 Y29.570 E0.01672
G1 X58.705 Y32.430 E0.12683
G1 X58.171 Y32.430 E0.01672
G1 X55.311 Y29.570 E0.12683
G1 X54.778 Y29.570 E0.01672
G1 X57.638 Y32.430 E0.12683
G1 X57.105 Y32.430 E0.01672
G1 X54.245 Y29.570 E0.12683
M73 P4 R65
G1 X53.711 Y29.570 E0.01672
G1 X56.572 Y32.430 E0.12683
G1 X56.038 Y32.430 E0.01672
G1 X53.178 Y29.570 E0.12683
G1 X52.645 Y29.570 E0.01672
G1 X55.505 Y32.430 E0.12683
G1 X54.972 Y32.430 E0.01672
G1 X52.112 Y29.570 E0.12683
G1 X51.578 Y29.570 E0.01672
G1 X54.439 Y32.430 E0.12683
G1 X53.905 Y32.430 E0.01672
G1 X51.045 Y29.570 E0.12683
G1 X50.512 Y29.570 E0.01672
G1 X53.372 Y32.430 E0.12683
G1 X52.839 Y32.430 E0.01672
G1 X49.978 Y29.570 E0.12683
G1 X49.445 Y29.570 E0.01672
G1 X52.305 Y32.430 E0.12683
